X:1
T:Trio Sonata No.4 in D-major from " 12 Trio Sonatas, Op.4 "
T:Trio Sonata No.4 in D-major
T:from " 12 Trio Sonatas, Op.4 " Transcribed for Recorder, Traverso and B/C in F-Dur from IMSLP#299301 PDF File
T:Arcangelo Corelli (1653 — 1713)
T:Public Domain
T:Public Domain
T:Public Domain
T:Public Domain
T:Public Domain
C:Arcangelo Corelli (1653 — 1713)
Z:Public Domain
%%score [ 1 2 3 ] { ( 4 6 7 9 ) | ( 5 8 ) }
L:1/8
Q:1/4=60
M:4/4
K:F
V:1 treble nm="Alto Rec." snm="A."
V:2 treble nm="Traverso" snm="Trv."
V:3 bass nm="Viola da gamba" snm="Vla. d. g."
V:4 treble nm="Harpsichord" snm="Hch."
V:6 treble 
V:7 treble 
V:9 treble 
V:5 bass 
V:8 bass 
V:1
"^Grave""^1. Preludio" c'3 c' d'2 c'2 | b4 a4 | !fermata!z8 | g3 g a2 g2 | f4 e4 | !fermata!z8 | %6
!f! g4 a4 | g4 f4 | e3 g f2 (ed) | e2 d2 c2 f2- | f z e2 a4 | g4 f4 | e4 (de)f!mf!f | %13
 (gf) z f (gf) z f | b2 a2 g"_cresc."c c'2- | c'f b4 a2 | de f4 e2 |!f! f2 c2- cF B2- | B2 A2 G4 | %19
 !fermata!A8 |][M:3/4][Q:1/4=120]"^Allegro""^2. Corrent"!f! c | (c3 .c) f2 | a2 ((g3 c')) | %23
 a2 f2 c'2- | c'2 ba b2- | b2 e2 a2- | a2 gf g2- | g2 (c2 c'2) | (d'g) g4 | f4!mf! a2 | b2 g2 c'2 | %31
 a2 f2 g2 | c2 (f3 g) | e2 c2 g2- | g2 c2!<(! f2- | f2 =B2 e2- | e2 A2!<)! d2 | =B2 G2!f! g2 | %38
 (fe) (d3 g) | e4 z :: g | (g3 .g) c'2 | d'2 (b3 c') | a2 f2 a2- | a2 (g3 e) | f2 d2 a2 | (gf) e4 | %47
 d6 |!mf! g2 d2 g2 | e6 | c'2 g2 c'2 | a6 | a2 (g3 f) | e2 c2 f2- | f2 d2 g2- | g2 e2!<(! a2- | %56
 a2 f2 b2- | b2!<)! (a2 c'2) |!f! (d'g) g4 | f4 d2 | e2 c2 f2- | f2 (f3 e) | f4 z :| z/8 | %64
[M:4/4][Q:1/4=60]"^3. Adagio" z!p!!<(! d!<)! a2 z!<(! d!<)! a2 | z!<(! f!<)! c'2 z!<(! f!<)! c'2 | %66
 z!<(! ad'c' b (a2!<)! g) |!mf! a3!>(! (a/e/) fd!>)! z (c'/g/) | af z!p! c'"_cresc." f2 z c' | %69
 f2 z d e f2 e | f!mf!a a2- a=b b2- | be a2- a (=b2 c') |!f! d'2 (c'=b) c'2 b2 | %73
!>(! a3!>)!!mf! c'- c'b a2 | b3 b- ba g2 | f3 (e/d/) ^cabc | z!>(! ab!>)!^c z!p! abg- | %77
 gf e2 d!mf!aba | z!p! a(ba) z!f! a(d'c') | b2 a4 g2 | a8 |][M:12/8][Q:3/8=180]"^4. Giga"!f! c | %82
 c3 z z c (fc)f (af)a | c'3 z z c' (ab)c' (ab)c' | g3 z z c' (fg)f (fg)f | e3 z z c (fc)f (fc)f | %86
 d3 z z g (gd)g (gd)g | (e3 z z g)!>(! (c'a)c' (fa)f!>)! |!mf! (db)d!<(! (ec')e (fg)a (f!<)!g)a | %89
 (d!>(!e)f (cf)e!>)! F3 (ac')a | (bg)b (c'g)c' (ac')a (gc')c | (fa)f (dg)d (eg)e (dg)d | %92
 (cf)c (=Be)B!<(! (Ad)A (Gc)G | (Af)e (dg)f (cg)!<)!e!f! (dg)d | (cf)c (=Be)B (Ad)A (Gc)G | %95
 (Af)e d2 g e3- e2 ::!f! c | (ed)c (ed)c g3 z z g | (ed)c (ed)c a3 z z a | %99
 (fe)d (fe)d (bg)a (bg)b | ^c2 a d2 a (ga)f e3 | d3 z z d (gd)g (gd)g | e3 z z g (c'g)c' (c'g)c' | %103
 (a3 z z .a) (a=b)c' (bc')a | ^g2 e a6 g3 | a3 z!p! a=b (c'a)b (c'd')a | (bg)a (bg)a (bg)a (bc')g | %107
 (af)g (af)a (dB)d (gb)g | (ec)e (ac')a (fd)f bd'b | (ge)g (c'd')c' (cc')a (gc')g | %110
 (fb)f (ea)e (dg)d (cf)c | (fc')b (ad')a (bd')b (ad')a | (gc')g (fb)f (ea)e (dg)d | %113
 (ec')b a2 d' b3- b2 :| %114
V:2
 a3 a b2 a2 | g4 c4 | !fermata!z8 | e3 e f2 e2 | d4 G4 | !fermata!z8 | z2!f! g4 f2- | f2 e4 d2- | %8
 d2 c2 (A=B) c2- | c2 =B2 c2 z2 | g6 f2- | f2 e4 d2- | d2 ^c2 d2 z!mf! c | (d2 c2) (d2 c2) | %14
 e2 f2 e2 z"_cresc." a | fd z g ec z c' | b2 (ag) a2 g2 |!f! f2 z2 d3 d | E2 (F4 E2) | %19
 !fermata!F8 |][M:3/4]!f! A | (A3 .A) c2 | f2 (e3 e) | f2 c2 g2 | f4 ed | e4 f2 | d3 d cB | %27
 c4 f2- | f2 e4 | f4!mf! f2 | g4 g2 | c4 c2- | c2 =B4 | c4 d2 | c4!<(! dc | =B4 c2 | A4!<)! A2 | %37
 G4!f! c2- | c2 (c3 =B) | c4 z :: e | (e3 .e) f2 | f2 (f3 e) | f2 c2 f2 | d2 e4 | A4 d2 | %46
 d2 (d3 ^c) | d6 |!mf! d2 g2 d2 | G6 | f2 c'2 g2 | c6 | d2 d4 | G4 (c2 | d4) (=B2 | e4)!<(! (c2 | %56
 f4) (d2 | e2)!<)! f4- | f2!f! e4 | f4 F2 | G4 A2- | A2 (G3 c) | A4 z :| z/8 | %64
[M:4/4] z2 z!p! a/!>(!e/ f!>)!d z!>(! a/e/ | f!>)!d z!>(! c'/g/ a!>)!f z!>(! c'/g/ | %66
 a!>)!f z!<(! a d^c d2!<)! |!mf! ^c!>(!feA!>)! z ag=c | z!p! c'(d'e) z"_cresc." c'(d'e) | %69
 z c'2 b- ba g2 | f3!mf! a a3 =b | =b2 z e ^f2 ^g2 |!f! a6 a>_a |!>(! a3!>)!!mf! a ^f (g2 f) | %74
 g3 g e f2 e- | ed a(g/f/) e2 z a | d2 z!p! a d2 z b | ^c d2 c d!mf!^fgf | z!p! ^f(gf) z!f! f(ga) | %79
 d2 ^c2 d4 | ^c8 |][M:12/8]!f! A | A3 z z a a3 z z a | (gf)g (ef)g c3 z z a | %84
 (c'b)c' (ef)g f3 z z d | (ef)g (ef)g c3 z z f | (fd)f (fd)f =B3 z z g | %87
 (ge)g (eg)e c3 z z!mf! c' | b3!<(! z z c' a3!<)! z z c' | (b!>(!c').a (g2!>)! .c') a3 z z!p! f | %90
 g3 g3 .c3 z z e | c3 d3 g3 z z g | f3 e3!<(! d3 c3- | c3 =B3 e3!<)! z z!f! g | f3 e3 d3 c3- | %95
 c3 =B3 c3- c2 ::!f! g | g3 z z e (de)f (=Bc)d | G3 z z g (ef)g (^cd)e | (A3 z z .f) d3 z z g | %100
 e3 d6 ^c3 | (de)^f (de)f g3 z z g | (ge)g (eg)e c3 z z c' | (c'a)c' (c'a)c' f3 d3- | %104
 d3 c3 =B3 z z e | c3 z z2!p! a3 ^f3 | d3 z2 z g3 e3 | a3 c3 F3 d3 | G3 e3 A3 f3 | %109
 g3 g3 c3 z z c' | b3 a3 g3 f3 | d3 e3 f3 z z c | B3 A3 G3 F3- | F3 E3 F3- F2 :| %114
V:3
 F,3 F, B,2 F,2- | F,2 E,2 F,4 | !fermata!z8 | C,3 C, F,2 C,2- | C,2 =B,,2 C,4 | !fermata!z8 | %6
!mf! CC,E,C, z F,A,F, | z CEC z D=B,G, | z C,E,E, F,G,A,F, | G,F,G,G,, (C_B,A,F,) | %10
 B,G,CC, z F,A,F, | z CE^C z DFF, | G,E,A,A,, D,2 z!p! A, | (B,2 A,2) (B,2 A,2) | %14
 G,2 F,2 C2 z"_cresc." A, | DD,G,G,, C,2 z F, | (B,CDB, C)B,CC, |!f! (F,G,A,)F, B,3 B,, | C,8 | %19
 !fermata!F,8 |][M:3/4] z |!f! F,6 | .F,2 .C2 .C,2 | F,4 .E,2 | D,4 .G,2 | C,4 .F,2 | %26
 B,,2 B,2 A,G, | A,4 .A,,2 | .B,,2 C,4 | F,4!mf! F2- | F2 E4 | F4 E2- | E2 D4 | C4 =B,2 | %34
 A,4!<(! D,2 | G,4 C,2 | F,4!<)! F,2 | F,4!f! E,2 | F,2 G,4 | G,4 z :: z | C4 A,2 | B,2 G,4 | %43
 F,4 F2 | =B,2 ^C4 | D,4 F,2 | G,2 A,4 | D2 A,2 D2 |!mf! =B,6 | C2 G,2 C2 | A,2 E,4 | F,2 C,2 F,2 | %52
 B,,2 =B,,4 | C,4 A,2 | B,4 G,2 | C4!<(! A,2 | D4 G,2 | C2!<)! D2 A,2 |!f! B,2 C2 C,2 | F,4 B,,2 | %60
 B,,4 A,,2 | B,,2 C,4 | F,4 z :| z/8 |[M:4/4]!p! D,D^CA, D,DCA, | D,FEC F,FEC | %66
 FF, z ^F, G,A, B,2 |!mf! A,D^CA, D,DE=C |!p! FA,B,C D"_cresc."A,B,C | DA,B,B,, C,F,CC, | %70
 F,,!mf!F,D,^C, D,=B,,E,^D, | E,=D,=C,A,, D,2 E,2 |!f! F,(FED EDE)E, | %73
!>(! (A,=B,C!>)!!mf!A, D)G,DD, | G,A,B,G, CF,=B,,^C, | D,D,,F,,G,, A,,F,,G,,A,, | %76
 B,,F,,G,,!p!A,, B,,F,,G,,G, | A,D,A,A,, D,2 z!mf! !tenuto!D, | G,D, z!p! D, G,D, z!f! ^F, | %79
 G,2 A,2 B,4 | A,8 |][M:12/8]!f! F, | F,3 z z F F3 z z F | (EDE CDE F3) z z .F | %84
 (EDE CDE D3) z z .D | (CDC B,CB, A,3) z z .F, | (B,F,B, B,F,B, G,3) z z .G, | %87
 (CG,C CG,C A,3) z z!mf! .A, | (B,3!<(! C3 D3)!<)! A,3 |!>(! B,3!>)! C3 F,3!p! (F3- | %90
 F3 E3 F3) (C3 | A,3) .=B,3 .C3 ((B,3 | A,3) G,3!<(! F,3 E,3 | F,3) G,3 C3!<)!!f! =B,3 | %94
 A,3 G,3 F,3 E,3 | F,3 G,3 C,3- C,2 ::!f! C, | C,3 z z .C (=B,CD G,A,B, | C3) z z .E (^CDE A,=B,C | %99
 D3) z z .D G,3 z z .G, | (A,G,A, F,E,F, G,F,G, A,G,A,) | (DA,D) (DA,D) =B,3 z z G, | %102
 (CG,C) (CG,C) E,3 z z .C | (FCF) (FCF) D3 z z D | (EDE FEF DCD EDE | A,3)!p! A,3 ^F,3 D,3 | %106
 G,3 G,3 E,3 C,3 | F,3 A,3 B,,6 | C,6 D,6 | E,6 F,3 E,3 | D,3 C,3 B,,3 A,,3 | B,,3 C,3 F,3 E,3 | %112
 D,3 C,3 B,,3 A,,3 | B,,3 C,3 F,3- F,2 :| %114
V:4
 [FAc]3 [FAc] [FBd]2 [FAc]2 | [CGB]4 [CFA]4 | !fermata!z8 | [CEG]3 [CEG] [C-FA]2 [CEG]2 | %4
[K:bass] [G,DF]4 [G,CE]4 | !fermata!z8 |[K:treble] [EG]2 (c2 A2) ([cf-]2 | f2 e4 d2) | %8
 (e2 c2 A)=Bcd | [ce]2 [=Bd]2 [Gc]2 f2 | dB (G2 A2) cA | f2 e4 d2 | E4 FGAF | d2 c2 (d2 c2) | %14
 (B2 A2 G2) z ((c | [cf]2)) [Bd]2 [Gce][EGc] [Acf]2 | (defG A2) G2 | (ABcA) [Fd]2 [Bd]F | %18
 ([EB]2 A2 G4) | [CFA]8 |][M:3/4] z | [CFA]4 .[Ac]2 | .[FA]2 [EG]2 .[GB]2 | .[FA]2 .[Ac]2 c2- | %24
 c2 (B4- | B2 c2) A2 | [Dd]4 (cB | c4) f2- | f2 [Ge]4 | [FAf]4 .[Ac]2 | (B2 c2) [Bcg]2 | %31
 [Ac]4 (c2 | f2) f4 | e4 g2- | g2 f4- | f2 gd e2- | e2 d2 c2 | [DG=B]4 [EGc]2 | [DAc]2 ((c3 =B)) | %39
 [CEc]4 z :: z | [ce]4 [cf]2 | [_Bd]2 (f3 e) | f4 (A2 | d2) (e2 A2) | [FAf]4 [Ad]2 | d2 (d3 ^c) | %47
!>(! d6!>)! | .[Gd]2 z2 .[Gdg]2 | [Gce]6 | .[Acf]2 .[Gcg]2 .c2 | [cfa]4 z2 | d2 (d3 f) | %53
 [Gce]4 F2- | (F2 G2) =B2 | G2 .A2 c2 | (A2 _B2) [Bd]2 | c2 .A2 [cf]2 | [FBd]2 [EGc]2 .[ceg]2 | %59
 .[Acf]2 .[FAc]2 .[FBd]2 | [Gce]4[K:bass] [CG]2 | [B,D]2 (F3 E) | [A,CF]4 z :|[K:treble] z/8 | %64
[M:4/4] z A3 z A3 | z A =c2 z c3 | z c d2- d^c [Dd]2 | ^c A2 c dAG=c | %68
 c[cf][Bd][Gc] A [cf][Bd][Gc] | Ac d2 e f2 e | f2- fe fd =B2- | B e2 c A =B2 c | [DAd]2 c=B c2 B2 | %73
 cdec- c_BAd | BcdB- BAGA | [FA] d3!>(! ^c d2!>)! c | dABA F[Ad-] [Bd]2 | ^c d2 c [Ad]2 z [C^FA] | %78
!>(! [GB][^FA] z [FA] [GB][FA] z [DAd]!>)! | [GB]2 (A4 G2) | A8 |][M:12/8] .[FAc] | %82
 [FAc]3 z z .[cfa] [cfa]3 z z .[ca] | .[cg]2 z [egc']2 z .[cfa]2 z z z .[ca] | %84
 .[cg]2 z efg f z z z z =B | e2 z .[ceg]2 z [cfc']2 z2 z .[Ac] | %86
 .[FBd]2 z .[FBd]2 z .[=Bdg]2 z2 z .[Bd] | .[Gce]2 z .[Gce]2 z .[cfc']2 z2 z c | %88
 d3 e3 f2 z .[Fcf]2 z | .[FGd]2 z [EGc]2 z .[Acf]2 z A3 | B3 c3- c3 e3 | e2 z d2 z [EGc]2 z d3 | %92
 [cf]3 [=Be]3 [Ad]3 [Gc]3 | [DAc]2 z [DG=B]2 z [EGc]2 z .[Gd]2 z | %94
 c2 z [E=Be]2 z [Ad]2 z [Gcg]2 z | .[Dc]2 z .[D=B]2 z [EGc]3- [EGc]2 :: .[Gce] | %97
 [Gce]3 z2 .c (d3 =B3 | e2) z2 z c (e3 ^c3 | f2) z2 z .d .[Bdb]2 z2 z .[Bd] | (^c3 d6 c3 | %101
 d2) z .[^FAd]2 z .[Gdg]2 z2 z .[=Bd] | .[Gce]2 z .[ceg]2 z .[cgc']2 z2 z .[eg] | %103
 .[cfa]2 z .[cfa]2 z .[=Bfa]2 z2 z .B | (d3 c3 f3 e3) | [ca]2 z z3 z3 [c^f]2 z | %106
 .[_Bg]2 z z3 z3 .[Be]2 z | .[Af]2 z (F6 G3- | G3 A6 B3- | B3 c6) c3 | B3 A3 G3 F3 | %111
 [DFG]2 z [CEG]2 z [CFA]2 z [CG]2 z | .F2 z [EA]2 z [DG]2 z [CFc]2 z | %113
 [DFG]2 z [CEG]2 z [A,CF]3- [A,CF]2 :| %114
V:5
 [F,,F,]4 [B,,,B,,]2 [F,,F,]2- | [F,,F,]2 [E,,E,]2 [F,,F,]4 | !fermata!z8 | %3
 C,4 [F,,F,]2 [C,,C,]2- | [C,,C,]2 [=B,,,=B,,]2 [C,,C,]4 | !fermata!z8 | CC,E,C, z F,A,F, | %7
 z CEC z D=B,G, | z CEE, (F,G,A,F, | G,)F,G,G,, (C_B,A,F,) | B,G,CC, z F,A,F, | z CE^C z DFF, | %12
 G,E,A,A,, .D,2 z A, | (B,2 A,2) (B,2 A,2) | G,2 F,2 C2 z A, | DD,G,G,, C,2 z F, | %16
 (B,CDB, C)B,CC, | (F,G,A,)F, B,3 [B,,,B,,] | C,8 | [F,,F,]8 |][M:3/4] z | [F,,F,]6 | %22
 .F,2 .C2 .C,2 | F,4 .E,2 | D,4 .G,2 | (C,4 .F,2) | B,,2 B,2 (A,G, | A,4) .A,,2 | .B,,2 C,4 | %29
 F,4 (F2 | F2) E4 | F4 E2- | E2 D4 | C4 =B,2 | A,4 D,2 | G,4 C,2 | F,4 .F,2 | F,4 .E,2 | .F,2 G,4 | %39
 G,4 z :: z | C4 .A,2 | .B,2 G,4 | F,4 F2 | =B,2 ^C4 | D4 F,2 | .G,2 A,4 | .D2 .A,2 .D2 | =B,6 | %49
 .C2 .G,2 .C2 | .A,2 E,4 | .F,2 .C,2 .F,2 | .B,,2 =B,,4 | C,4 A,2 | B,4 .G,2 | C4 .A,2 | D4 .G,2 | %57
 C2 D2 A,2 | B,2 C2 C,2 | F,4 B,,2 | B,,4 A,,2 | B,,2 C,4 | [F,,F,]4 z :| z/8 | %64
[M:4/4] D,D^CA, D,DCA, | D,FEC F,FEC | FF, z ^F, G,A, B,2 | A,D^CA, D,DE=C | FA,B,C DA,B,C | %69
 DA,B,B,, C,F,CC, | F,,F,D,^C, D,=B,,E,^D, | E,=D,=C,A,, [D,,D,]2 [E,,E,]2 | [F,,F,]FED EDEE, | %73
 A,=B,CA, DG,DD, | G,A,B,G, CF,=B,,^C, | D,D,,F,,G,, A,,F,,G,,A,, | B,,F,,G,,A,, B,,F,,G,,G, | %77
 A,D,A,A,, D,2 z !tenuto![D,,D,] | [G,,G,][D,,D,] z !tenuto![D,,D,] [G,,G,][D,,D,] z [^F,,^F,] | %79
 [G,,G,]2 [A,,A,]2 [B,,B,]4 | A,8 |][M:12/8] .F, | F,3 z z .F F2 z z z G | (EDE CDE F3) z z .F | %84
 (EDE CDE D3) z z .D | (CDC _B,CB, A,3) z z .F, | (B,F,B, B,F,B, G,3) z2 .G, | %87
 (CG,C CG,C .A,3) z2 .A, | (.B,3 C3 D3) .[A,,A,]2 z | .[B,,B,]2 z .[C,C]2 z [F,,F,]2 z (F3- | %90
 F3 E3 G3) (C3 | A,3) .=B,3 .C3 ((B,3 | A,3) G,3 F,3 .E,3 | !tenuto!F,3) .G,3 .[C,C]3 [=B,,=B,]3 | %94
 [A,,A,]3 [G,,G,]3 [F,,F,]3 [E,,E,]3 | [F,,F,]3 [G,,G,]3 [C,,C,]3- [C,,C,]2 :: .[C,C] | %97
 [C,C]3 z2 .C (=B,CD G,A,B, | C3) z2 .E (^CDE A,=B,C | D3) z2 .D G,3 z2 .G, | %100
 (A,G,A, F,.E,F, G,F,G, A,G,A,) | ([D,D]A,D) (DA,D) =B,3 z2 .G, | ([C,C]G,C) (CG,C) E,3 z2 .C | %103
 ([F,F].CF) (FCF) D3 z2 .D | (EDE FEF DCD EDE | .A,2) z (A3 ^F3 D3 | G,2) z (G3 E3 C3 | %107
 F,2) z (A,,3 B,,6 | C,6 D,6 | E,6 F,3) E,3 | D,3 C,3 B,,3 A,,3 | B,,3 C,3 [F,,F,]3 [E,,E,]3 | %112
 [D,,D,]3 [C,,C,]3 [B,,,B,,]3 [A,,,A,,]3 | [A,,,B,,]3 [C,,C,]3 [F,,F,]3- [F,,F,]2 :| %114
V:6
 x8 | x8 | x8 | x8 |[K:bass] x8 | x8 |[K:treble] x2 [CG]4 FA | G4 F2 G=B | G4 x3 A | G3 F E2 cA | %10
 f2 (e2 c2) f2 | G3 A F2 A2 | [Bd]2 [A-^c]2 [Ad]2 x =c- | x (FGF- F)(FGF) | (E C2 D E2) x (F | %15
 F2) F2 x4 | B2 F4 E2 | A2 x2 c2 FD | C2 C6 | x8 |][M:3/4] x | x6 | x6 | x4 (G2 | F4) E2- | %25
 E4 (F2 | A2) G2 G2- | G2 (F4 | G2) (G2 B2) | x6 | [GB]4 x2 | x4 c2- | c2 (=B2 G2) | G4 d2 | %34
 c4 (A2 | =B4) ((G2 | A4)) A2 | x6 | x2 D4 | x5 :: x | G4 F2 | F2 B4 | A4 A2- | A2 x4 | F4 F2 | %46
 [EB]2 [EA]4 | [FA]4 x2 | x6 | x6 | x6 | x6 | F2 G4 | x6 | x6 | E4 x2 | (F4 F2 | [EG]2) F2 F2 | %58
 x6 | x6 | x4[K:bass] x2 | x6 | x5 :|[K:treble] x/4 |[M:4/4] x (F E2) x (F E2) | %65
 x (A G2) x (A G2) | x A3 B[EA-] AG | EF E2 F2 G2 | AF-FE F .F2 E | F3 G GA G2 | A2 A4- A^F | %71
 ^G2 A2 ^F2 G2 | x2 A4- A>^G | A4 ^F G2 F | G4 E =F2 E | F2 AB GA E2 | D2 x ^C D D2 E | %77
 EF G2 ^F2 x2 | D2 x [D^F] D2 x2 | D2 [^CE]2 D4 | [^CE]8 |][M:12/8] x | x12 | x12 | x3 c3 A x4 f | %85
 c2 x10 | x12 | x11 c | d3 B3 A2 x4 | x9 A3- | G6 A3 G3 | F2 x [FG]2 x4 g3 | x12 | x12 | c2 x10 | %95
 x11 :: x | x6 (!tenuto!G6 | G2) x4 (A6 | A2) x10 | (A6 E6 | ^F2) x10 | x12 | x11 A | %104
 ^G3 A3 =B3 G3 | A2 x c3 A3 A2 x | .G2 x (B3 G3) .G2 x | .F2 x (C3 D4 x2 | E6 F6 | G6 A3) G3 | %110
 F3 E3 D3 C3 | x12 | x12 | x11 :| %114
V:7
 x8 | x8 | x8 | x8 |[K:bass] x8 | x8 |[K:treble] x8 | x8 | x8 | x8 | x8 | x8 | x8 | x8 | x8 | x8 | %16
 x8 | x8 | x2 F4 E2 | x8 |][M:3/4] x | x6 | x6 | x6 | x6 | x6 | x6 | x6 | x6 | x6 | x6 | x6 | x6 | %33
 x6 | x6 | x6 | x6 | x6 | x6 | x5 :: x | x6 | x6 | x6 | x6 | x6 | x6 | x6 | x6 | x6 | x6 | x6 | %52
 x6 | x6 | x6 | x6 | x6 | x6 | x6 | x6 | x4[K:bass] x2 | x2 (G,2 C2) | x5 :|[K:treble] x/4 | %64
[M:4/4] x8 | x8 | x8 | x8 | x8 | x8 | x8 | x8 | x8 | x8 | x8 | x8 | x8 | A4 x4 | x8 | x8 | x8 |] %81
[M:12/8] x | x12 | x12 | x12 | x12 | x12 | x12 | x12 | x12 | x12 | x12 | x12 | x12 | x12 | x11 :: %96
 x | x12 | x12 | x12 | x12 | x12 | x12 | x12 | x12 | x12 | x12 | x12 | x12 | x12 | x12 | x12 | %112
 x12 | x11 :| %114
V:8
 x8 | x8 | x8 | x8 | x8 | x8 | x8 | x8 | x8 | x8 | x8 | x8 | x8 | x8 | x8 | x8 | x8 | x8 | C,,8 | %19
 x8 |][M:3/4] x | x6 | x6 | x6 | x6 | x6 | x6 | x6 | x6 | x6 | x6 | x6 | x6 | x6 | x6 | x6 | x6 | %37
 x6 | x2 G,2 G,,2 | x5 :: x | x6 | x6 | x6 | x6 | x6 | x6 | x6 | x6 | x6 | x6 | x6 | x6 | x6 | x6 | %55
 x6 | x6 | x6 | x6 | x6 | x6 | x6 | x5 :| x/4 |[M:4/4] x8 | x8 | x8 | x8 | x8 | x8 | x8 | x8 | x8 | %73
 x8 | x8 | x8 | x8 | x8 | x8 | x8 | A,,8 |][M:12/8] x | x12 | x12 | x12 | x12 | x12 | x12 | x12 | %89
 x12 | x12 | x12 | x12 | x12 | x12 | x11 :: x | x12 | x12 | x12 | x12 | x12 | x12 | x12 | x12 | %105
 x12 | x12 | x12 | x12 | x12 | x12 | x12 | x12 | x11 :| %114
V:9
 x8 | x8 | x8 | x8 |[K:bass] x8 | x8 |[K:treble] x8 | x8 | x8 | x8 | x8 | x8 | x8 | x8 | x8 | x8 | %16
 x8 | x8 | x8 | x8 |][M:3/4] x | x6 | x6 | x6 | x6 | x6 | x6 | x6 | x6 | x6 | x6 | x6 | x6 | x6 | %34
 x6 | x6 | x6 | x6 | x6 | x5 :: x | x6 | x6 | x6 | x6 | x6 | x6 | x6 | x6 | x6 | x6 | x6 | x6 | %53
 x6 | x6 | x6 | x6 | x6 | x6 | x6 | x4[K:bass] x2 | x2 G,4 | x5 :|[K:treble] x/4 |[M:4/4] x8 | x8 | %66
 x8 | x8 | x8 | x8 | x8 | x8 | x8 | x8 | x8 | x8 | x8 | x8 | x8 | x4 D3 E | x8 |][M:12/8] x | x12 | %83
 x12 | x12 | x12 | x12 | x12 | x12 | x12 | x12 | x12 | x12 | x12 | x12 | x11 :: x | x12 | x12 | %99
 x12 | x12 | x12 | x12 | x12 | x12 | x12 | x12 | x12 | x12 | x12 | x12 | x12 | x12 | x11 :| %114

